X: 11307
T: Eagle's Whistle
R: slip jig
M: 9/8
K: Gmajor
|:"G" B3 d2B A2G|B3 d2B A2G|"D/F#" A3 A2B A2G|A3 A2B A2G|
"C/E"B3 d2B A2G|B3 d2B "D" A2B|"G" G3 G2B A2B|1 G3 G2D G2A:|2 G3 G2A B2d||
|:"C/E" e3 d2e g2d|e3 d2B A2G|"D/F#" A3 A2B A2G|A3 A2G B2d|
"C/E" e3 d2e g2d|e3 d2B "D" A2B|"G" G3 G2B A2B|1 G3 G2A B2d:|2 G3 G2D G2A||

